X:1
T:Posen, 77.77
T:Posen, 77.77
T:Georg Christoph Strattner, 1691
T:Public Domain Courtesy of the Cyber Hymnal™
C:Georg Christoph Strattner, 1691
Z:Public Domain
Z:Courtesy of the Cyber Hymnal™
%%score ( 1 2 ) ( 3 4 )
L:1/8
Q:1/4=110
M:4/4
K:Eb
V:1 treble 
V:2 treble 
V:3 bass 
V:4 bass 
V:1
 [B,E]2 [B,E]2 [CE]2 [CE]2 | (FG) [DA]2 [EG]4 | [EB]2 [AB]2 [GB]2 [FB]2 | (cd) [Fe]2 [Fd]4 | %4
 [Ee]2 [EB]2 [Ec]2 [=EB]2 | [FA]2 [EG]2 F4 | [EB]2 E2 (FG) [EA]2 | [EG]2 [DF]2 E4 |] %8
V:2
 x8 | C2 x6 | x8 | E2 x6 | x8 | x4 (E2 D2) | x2 E2 E2 x2 | x4 E4 |] %8
V:3
 [E,G,]2 [D,G,]2 [C,G,]2 [B,,G,]2 | [A,,F,]2 [B,,B,]2 [E,B,]4 | [G,B,]2 [F,D]2 [E,E]2 [D,B,]2 | %3
 [C,B,]2 [F,=A,]2 [B,,B,]4 | [G,B,]2 [E,G,]2 A,2 [C,G,]2 | [F,A,]2 ([G,B,][A,C]) B,4 | %6
 [G,B,]2 [G,B,]2 [A,C]2 [C,A,]2 | [B,,B,]2 (B,A,) [E,G,]4 |] %8
V:4
 x8 | x8 | x8 | x8 | x4 A,2 x2 | x4 B,4 | x8 | x2 B,,2 x4 |] %8

